projects/flag-game/flags/Anguilla.svg

<svg viewBox="0 0 1000 501" xmlns="http://www.w3.org/2000/svg"><g fill-rule="evenodd"><path d="m0 500v-500h1000v500zm0 0" fill="#00247d"/><path d="m0 0v27.949219l444.097656 222.050781h55.902344v-27.949219l-444.097656-222.050781zm500 0v27.949219l-444.097656 222.050781h-55.902344v-27.953125l444.097656-222.046875zm0 0" fill="#fff"/><path d="m0 250 166.664062-83.335938h37.269532l-166.667969 83.335938zm0-250 166.664062 83.335938h-37.265624l-129.398438-64.703126zm296.066406 83.335938 166.667969-83.335938h37.265625l-166.664062 83.335938zm203.933594 166.664062-166.664062-83.335938h37.265624l129.398438 64.703126zm0 0" fill="#cf142b"/><path d="m650.484375 128.363281c0 124.023438 9.898437 168.0625 43.84375 202.066407 33.9375 34.003906 46.800781 39.359374 56.269531 44.570312 10.917969-6.011719 23.492188-12.613281 54.261719-43.378906 30.425781-30.425782 45.140625-74.289063 45.140625-205.371094-22.132812 9.472656-33.152344 12.597656-52.511719 12.539062-14.335937 1.40625-36.449219-7.777343-49.671875-13.789062-8.640625 5.503906-21.179687 12.066406-43.710937 12.796875-26.019531 1.09375-34.265625-3.109375-53.621094-9.433594zm0 0" fill="#cc3"/><path d="m656.480469 136.195312c0 38.371094-2.273438 90.664063 5.839843 120.917969 8.136719 30.386719 10.007813 34.839844 16.132813 45.441407l142.667969-1.0625c8.816406-15.261719 9.261718-24.714844 15.792968-49.109376 6.511719-24.300781 8.160157-78.480468 8.351563-118.832031-14.347656 7.269531-33.136719 12.421875-51.375 10.160157-14.613281-1.058594-28.125-4.242188-43.851563-12.71875-13.648437 7.796874-18.402343 11.351562-40.933593 12.265624-17.542969.824219-31.75 2.175782-52.625-7.0625zm0 0" fill="#fff"/><path d="m678.761719 301.714844c10.148437 20.371094 58.027343 59.417968 72.023437 67.5 15.972656-9.21875 58.207032-47.804688 69.976563-67.5zm0 0" fill="#9cf"/><path d="m753.515625 193.003906c4.511719 10.117188 18.972656 21.289063 22.953125 26.761719-5.0625 5.476563-6.074219 4.878906-5.410156 15.050781 8.800781-8.777344 8.960937-9.695312 14.621094-8.363281 12.398437 11.800781 2.214843 37.128906-8.027344 42.636719-10.246094 5.882812-8.390625-.199219-23.742188 7.164062 7.039063 5.738282 15.195313-.84375 21.859375.917969 3.625 4.097656-1.71875 11.5625 1.09375 18.59375 5.894531-.535156 5.1875-11.878906 6.558594-15.992187 4.304687-15.0625 30.175781-25.566407 31.496094-39.382813 5.453125-2.441406 10.90625-.761719 17.539062 2.789063-3.300781-12.945313-14.234375-12.808594-17.160156-16.851563-6.976563-10.15625-13.152344-21.75-28.050781-24.75-11.304688-2.285156-10.457032.683594-17.703125-4.03125-4.515625-3.347656-18.21875-9.679687-16.027344-4.542969zm0 0" fill="#f90"/><path d="m786.039062 204.511719c0 1.242187-1.054687 2.246093-2.359374 2.246093-1.300782 0-2.355469-1.003906-2.355469-2.246093 0-1.242188 1.054687-2.246094 2.355469-2.246094 1.304687 0 2.359374 1.003906 2.359374 2.246094zm0 0" fill="#fff"/><path d="m717.363281 235.921875c7.277344-8.53125 10.878907-25.941406 14.101563-31.847656 7.441406 1.707031 7.359375 2.839843 16.480468-2.472657-12.25-3.316406-13.175781-3.023437-14.582031-8.414062 5.148438-15.964844 33.398438-19.21875 43.292969-13.152344 10.234375 5.890625 3.730469 7.164063 17.734375 16.667969 2.03125-8.617187-7.882813-12.421875-9.367187-18.863281 2.109374-4.964844 11.527343-3.949219 16.738281-9.605469-3.253907-4.714844-13.441407 1.179687-17.894531 1.945313-15.976563 3.410156-37.808594-13.496094-51.238282-8.148438-4.8125-3.457031-5.800781-8.835938-5.609375-16.089844-10.460937 8.832032-5.226562 17.980469-7.609375 22.335938-6.164062 10.625-14.023437 21.25-9.855468 35.207031 3.164062 10.597656 5.523437 8.5 4.542968 16.808594-1 5.367187-.46875 19.878906 3.265625 15.628906zm0 0" fill="#f90"/><path d="m712.839844 203.136719c1.152344-.582031 2.582031-.164063 3.191406.9375.605469 1.09375.164062 2.453125-.988281 3.03125-1.148438.578125-2.570313.160156-3.183594-.933594-.605469-1.097656-.164063-2.457031.980469-3.035156zm0 0" fill="#fff"/><path d="m776.46875 241.917969c-11.421875-1.523438-28.910156 4.542969-35.882812 4.972656-2.316407-6.953125-1.257813-7.476563-10.742188-12.167969 3.359375 11.707032 4.101562 12.308594-.011719 16.25-16.992187 4.054688-34.53125-17.308594-34.203125-28.519531-.003906-11.398437 4.503906-6.75 5.792969-23.089844-8.789063 2.796875-7.070313 12.851563-12.085937 17.394531-5.550782.851563-9.511719-7.363281-17.285157-8.6875-2.546875 5.09375 8.011719 10.355469 11 13.59375 11.328125 11.277344 7.445313 37.832032 19.191407 46.019532-.617188 5.71875-4.933594 9.3125-11.539063 12.902344 13.339844 3.96875 18.84375-5.035157 23.984375-5.347657 12.726562-.464843 26.328125.457031 36.703125-10.167969 7.875-8.0625 4.773437-8.902343 12.742187-12.398437 5.328126-1.960937 18.082032-9.898437 12.335938-10.753906zm0 0" fill="#f90"/><path d="m749.375 262.570312c-1.117188-.640624-1.476562-2.023437-.804688-3.082031.667969-1.066406 2.117188-1.410156 3.230469-.773437 1.121094.640625 1.476563 2.023437.808594 3.085937-.671875 1.058594-2.121094 1.40625-3.234375.769531zm0 0" fill="#fff"/></g><path d="m208.335938 0v250h83.328124v-250zm0 0" fill="#fff" stroke="#fff" stroke-linecap="square" stroke-miterlimit="3.239307"/><path d="m0 83.335938v83.328124h500v-83.328124zm0 0" fill="#fff" stroke="#fff" stroke-linecap="square" stroke-miterlimit="3.239307"/><path d="m0 100v50h500v-50zm0 0" fill="#cf142b" stroke="#cf142b" stroke-linecap="square" stroke-miterlimit="3.239307"/><path d="m225 0v250h50v-250zm0 0" fill="#cf142b" stroke="#cf142b" stroke-linecap="square" stroke-miterlimit="3.239307"/></svg>

<?xml version="1.0" encoding="UTF-8"?>
<svg xmlns="http://www.w3.org/2000/svg" xmlns:xlink="http://www.w3.org/1999/xlink" viewBox="0 0 1000 501" version="1.1">
<g id="surface104">
<path style=" stroke:none;fill-rule:evenodd;fill:rgb(0%,14.117432%,49.01886%);fill-opacity:1;" d="M 0 500 L 0 0 L 1000 0 L 1000 500 Z M 0 500 "/>
<path style=" stroke:none;fill-rule:evenodd;fill:rgb(99.998474%,99.998474%,99.998474%);fill-opacity:1;" d="M 0 0 L 0 27.949219 L 444.097656 250 L 500 250 L 500 222.050781 L 55.902344 0 Z M 500 0 L 500 27.949219 L 55.902344 250 L 0 250 L 0 222.046875 L 444.097656 0 Z M 500 0 "/>
<path style=" stroke:none;fill-rule:evenodd;fill:rgb(81.175232%,7.843018%,16.862488%);fill-opacity:1;" d="M 0 250 L 166.664062 166.664062 L 203.933594 166.664062 L 37.265625 250 Z M 0 0 L 166.664062 83.335938 L 129.398438 83.335938 L 0 18.632812 Z M 296.066406 83.335938 L 462.734375 0 L 500 0 L 333.335938 83.335938 Z M 500 250 L 333.335938 166.664062 L 370.601562 166.664062 L 500 231.367188 Z M 500 250 "/>
<path style=" stroke:none;fill-rule:evenodd;fill:rgb(79.998779%,79.998779%,19.999695%);fill-opacity:1;" d="M 650.484375 128.363281 C 650.484375 252.386719 660.382812 296.425781 694.328125 330.429688 C 728.265625 364.433594 741.128906 369.789062 750.597656 375 C 761.515625 368.988281 774.089844 362.386719 804.859375 331.621094 C 835.285156 301.195312 850 257.332031 850 126.25 C 827.867188 135.722656 816.847656 138.847656 797.488281 138.789062 C 783.152344 140.195312 761.039062 131.011719 747.816406 125 C 739.175781 130.503906 726.636719 137.066406 704.105469 137.796875 C 678.085938 138.890625 669.839844 134.6875 650.484375 128.363281 Z M 650.484375 128.363281 "/>
<path style=" stroke:none;fill-rule:evenodd;fill:rgb(99.998474%,99.998474%,99.998474%);fill-opacity:1;" d="M 656.480469 136.195312 C 656.480469 174.566406 654.207031 226.859375 662.320312 257.113281 C 670.457031 287.5 672.328125 291.953125 678.453125 302.554688 L 821.121094 301.492188 C 829.9375 286.230469 830.382812 276.777344 836.914062 252.382812 C 843.425781 228.082031 845.074219 173.902344 845.265625 133.550781 C 830.917969 140.820312 812.128906 145.972656 793.890625 143.710938 C 779.277344 142.652344 765.765625 139.46875 750.039062 130.992188 C 736.390625 138.789062 731.636719 142.34375 709.105469 143.257812 C 691.5625 144.082031 677.355469 145.433594 656.480469 136.195312 Z M 656.480469 136.195312 "/>
<path style=" stroke:none;fill-rule:evenodd;fill:rgb(59.999084%,79.998779%,99.998474%);fill-opacity:1;" d="M 678.761719 301.714844 C 688.910156 322.085938 736.789062 361.132812 750.785156 369.214844 C 766.757812 359.996094 808.992188 321.410156 820.761719 301.714844 Z M 678.761719 301.714844 "/>
<path style=" stroke:none;fill-rule:evenodd;fill:rgb(99.998474%,59.999084%,0%);fill-opacity:1;" d="M 753.515625 193.003906 C 758.027344 203.121094 772.488281 214.292969 776.46875 219.765625 C 771.40625 225.242188 770.394531 224.644531 771.058594 234.816406 C 779.859375 226.039062 780.019531 225.121094 785.679688 226.453125 C 798.078125 238.253906 787.894531 263.582031 777.652344 269.089844 C 767.40625 274.972656 769.261719 268.890625 753.910156 276.253906 C 760.949219 281.992188 769.105469 275.410156 775.769531 277.171875 C 779.394531 281.269531 774.050781 288.734375 776.863281 295.765625 C 782.757812 295.230469 782.050781 283.886719 783.421875 279.773438 C 787.726562 264.710938 813.597656 254.207031 814.917969 240.390625 C 820.371094 237.949219 825.824219 239.628906 832.457031 243.179688 C 829.15625 230.234375 818.222656 230.371094 815.296875 226.328125 C 808.320312 216.171875 802.144531 204.578125 787.246094 201.578125 C 775.941406 199.292969 776.789062 202.261719 769.542969 197.546875 C 765.027344 194.199219 751.324219 187.867188 753.515625 193.003906 Z M 753.515625 193.003906 "/>
<path style=" stroke:none;fill-rule:evenodd;fill:rgb(99.998474%,99.998474%,99.998474%);fill-opacity:1;" d="M 786.039062 204.511719 C 786.039062 205.753906 784.984375 206.757812 783.679688 206.757812 C 782.378906 206.757812 781.324219 205.753906 781.324219 204.511719 C 781.324219 203.269531 782.378906 202.265625 783.679688 202.265625 C 784.984375 202.265625 786.039062 203.269531 786.039062 204.511719 Z M 786.039062 204.511719 "/>
<path style=" stroke:none;fill-rule:evenodd;fill:rgb(99.998474%,59.999084%,0%);fill-opacity:1;" d="M 717.363281 235.921875 C 724.640625 227.390625 728.242188 209.980469 731.464844 204.074219 C 738.90625 205.78125 738.824219 206.914062 747.945312 201.601562 C 735.695312 198.285156 734.769531 198.578125 733.363281 193.1875 C 738.511719 177.222656 766.761719 173.96875 776.65625 180.035156 C 786.890625 185.925781 780.386719 187.199219 794.390625 196.703125 C 796.421875 188.085938 786.507812 184.28125 785.023438 177.839844 C 787.132812 172.875 796.550781 173.890625 801.761719 168.234375 C 798.507812 163.519531 788.320312 169.414062 783.867188 170.179688 C 767.890625 173.589844 746.058594 156.683594 732.628906 162.03125 C 727.816406 158.574219 726.828125 153.195312 727.019531 145.941406 C 716.558594 154.773438 721.792969 163.921875 719.410156 168.277344 C 713.246094 178.902344 705.386719 189.527344 709.554688 203.484375 C 712.71875 214.082031 715.078125 211.984375 714.097656 220.292969 C 713.097656 225.660156 713.628906 240.171875 717.363281 235.921875 Z M 717.363281 235.921875 "/>
<path style=" stroke:none;fill-rule:evenodd;fill:rgb(99.998474%,99.998474%,99.998474%);fill-opacity:1;" d="M 712.839844 203.136719 C 713.992188 202.554688 715.421875 202.972656 716.03125 204.074219 C 716.636719 205.167969 716.195312 206.527344 715.042969 207.105469 C 713.894531 207.683594 712.472656 207.265625 711.859375 206.171875 C 711.253906 205.074219 711.695312 203.714844 712.839844 203.136719 Z M 712.839844 203.136719 "/>
<path style=" stroke:none;fill-rule:evenodd;fill:rgb(99.998474%,59.999084%,0%);fill-opacity:1;" d="M 776.46875 241.917969 C 765.046875 240.394531 747.558594 246.460938 740.585938 246.890625 C 738.269531 239.9375 739.328125 239.414062 729.84375 234.722656 C 733.203125 246.429688 733.945312 247.03125 729.832031 250.972656 C 712.839844 255.027344 695.300781 233.664062 695.628906 222.453125 C 695.625 211.054688 700.132812 215.703125 701.421875 199.363281 C 692.632812 202.160156 694.351562 212.214844 689.335938 216.757812 C 683.785156 217.609375 679.824219 209.394531 672.050781 208.070312 C 669.503906 213.164062 680.0625 218.425781 683.050781 221.664062 C 694.378906 232.941406 690.496094 259.496094 702.242188 267.683594 C 701.625 273.402344 697.308594 276.996094 690.703125 280.585938 C 704.042969 284.554688 709.546875 275.550781 714.6875 275.238281 C 727.414062 274.773438 741.015625 275.695312 751.390625 265.070312 C 759.265625 257.007812 756.164062 256.167969 764.132812 252.671875 C 769.460938 250.710938 782.214844 242.773438 776.46875 241.917969 Z M 776.46875 241.917969 "/>
<path style=" stroke:none;fill-rule:evenodd;fill:rgb(99.998474%,99.998474%,99.998474%);fill-opacity:1;" d="M 749.375 262.570312 C 748.257812 261.929688 747.898438 260.546875 748.570312 259.488281 C 749.238281 258.421875 750.6875 258.078125 751.800781 258.714844 C 752.921875 259.355469 753.277344 260.738281 752.609375 261.800781 C 751.9375 262.859375 750.488281 263.207031 749.375 262.570312 Z M 749.375 262.570312 "/>
<path style="fill-rule:nonzero;fill:rgb(99.998474%,99.998474%,99.998474%);fill-opacity:1;stroke-width:1;stroke-linecap:square;stroke-linejoin:miter;stroke:rgb(99.998474%,99.998474%,99.998474%);stroke-opacity:1;stroke-miterlimit:3.239307;" d="M 208.335938 0 L 208.335938 250 L 291.664062 250 L 291.664062 0 Z M 208.335938 0 "/>
<path style="fill-rule:nonzero;fill:rgb(99.998474%,99.998474%,99.998474%);fill-opacity:1;stroke-width:1;stroke-linecap:square;stroke-linejoin:miter;stroke:rgb(99.998474%,99.998474%,99.998474%);stroke-opacity:1;stroke-miterlimit:3.239307;" d="M 0 83.335938 L 0 166.664062 L 500 166.664062 L 500 83.335938 Z M 0 83.335938 "/>
<path style="fill-rule:nonzero;fill:rgb(81.175232%,7.843018%,16.862488%);fill-opacity:1;stroke-width:1;stroke-linecap:square;stroke-linejoin:miter;stroke:rgb(81.175232%,7.843018%,16.862488%);stroke-opacity:1;stroke-miterlimit:3.239307;" d="M 0 100 L 0 150 L 500 150 L 500 100 Z M 0 100 "/>
<path style="fill-rule:nonzero;fill:rgb(81.175232%,7.843018%,16.862488%);fill-opacity:1;stroke-width:1;stroke-linecap:square;stroke-linejoin:miter;stroke:rgb(81.175232%,7.843018%,16.862488%);stroke-opacity:1;stroke-miterlimit:3.239307;" d="M 225 0 L 225 250 L 275 250 L 275 0 Z M 225 0 "/>
</g>
</svg>
